X:84
M:C|
L:1/8
K:B Minor
ef/g/ f>e d<B~B:|2 B<dc<e d<fe<g|f>g f/e/d/c/ d<B~B||f|b<f g>e f<d B>c|
d>e f/e/d/c/ d<A A>f|b<f g>e f<d B>g|f<d f/e/d/c/ d<B B>f|b>fg>e f>de>c|
d<B f>B d<A AB/c/|d>Be>c f<d g>e|f>F f/e/d/c/ d<B~B||

